svg/财经-1.svg

<svg width="36" height="36" viewBox="0 0 36 36" fill="none" xmlns="http://www.w3.org/2000/svg"><rect x="-46.8" y="-9.8" width="129.6" height="87.6" rx="11.8" stroke="#DDDDDD" stroke-width="0.4"/><path d="M22.4554 23.2745C22.2532 23.2576 22.0509 23.1902 21.8823 23.0891L18.4359 20.5673C17.6047 19.9591 16.478 19.9491 15.6361 20.5424L8.41811 25.6296C8.09916 25.8544 7.90942 26.2203 7.90942 26.6105V32.9493C7.90942 34.6348 9.27469 36.0001 10.9602 36.0001H33.2933C34.9788 36.0001 36.3441 34.6348 36.3441 32.9493V16.6903C36.3441 15.7307 35.2736 15.1593 34.4763 15.6932L23.433 23.0891C23.1465 23.2576 22.7925 23.3419 22.4554 23.2745Z" fill="#54575B"/><path d="M9.91013 22.001L16.8416 17.2539L21.8127 20.9238C21.9994 21.0303 22.2095 21.1013 22.4195 21.1132C22.7696 21.1605 23.1313 21.1013 23.4231 20.9238L35.6991 12.6014C36.4926 12.2463 36.8427 11.311 36.4926 10.5179C36.2475 9.96147 35.6874 9.59448 35.0806 9.5708H27.2856C26.4221 9.5708 25.7336 10.2693 25.7336 11.1453C25.7336 12.0213 26.4221 12.7198 27.2856 12.7198H29.9228L22.6646 17.6682L17.6935 13.9983C17.4018 13.8208 17.04 13.7497 16.6899 13.8089C16.4682 13.8208 16.2582 13.8918 16.0715 13.9983L8.35812 19.2664C7.63463 19.7162 7.41291 20.6988 7.85634 21.4565C8.28811 22.1431 9.18663 22.3799 9.91013 22.001Z" fill="#8D8F91"/><rect x="0.12" y="0.12" width="35.76" height="35.76" rx="11.88" stroke="#D1D5DA" stroke-width="0.24"/><defs><clipPath id="clip0_1970_14250"><rect width="36" height="36" rx="12" fill="white"/></clipPath></defs></svg>

<svg fill="none" viewBox="0 0 36 36"><rect width="129.6" height="87.6" x="-46.8" y="-9.8" stroke="#DDDDDD" stroke-width=".4" rx="11.8"/><path fill="#54575B" d="M22.455 23.275a1.35 1.35 0 0 1-.573-.186l-3.446-2.522a2.4 2.4 0 0 0-2.8-.025L8.418 25.63a1.2 1.2 0 0 0-.509.98v6.34A3.05 3.05 0 0 0 10.96 36h22.333a3.05 3.05 0 0 0 3.051-3.05V16.69a1.2 1.2 0 0 0-1.868-.997L23.433 23.09c-.287.169-.64.253-.978.186"/><path fill="#8D8F91" d="m9.91 22.001 6.932-4.747 4.97 3.67c.187.106.397.177.607.19.35.046.712-.013 1.004-.19L35.7 12.6c.794-.355 1.144-1.29.794-2.083a1.62 1.62 0 0 0-1.412-.947h-7.795c-.864 0-1.552.698-1.552 1.574s.688 1.575 1.552 1.575h2.637l-7.258 4.948-4.971-3.67a1.47 1.47 0 0 0-1.004-.19 1.4 1.4 0 0 0-.619.19l-7.713 5.268c-.723.45-.945 1.433-.502 2.19a1.57 1.57 0 0 0 2.054.545"/><rect width="35.76" height="35.76" x=".12" y=".12" stroke="#D1D5DA" stroke-width=".24" rx="11.88"/></svg>
